X: 1
T: Handsome Young Maids
T: Handsome Young Lasses
C: Charlie Lennon (1992)
M: 6/8
Z: 2019 John Chambers <jc:trillian.mit.edu>
B: Portland Coll p.84
R: jig
K: A
e |:\
"A"aed cdB | Ace aga |\
"E7"bee dee |[1,3 Bee bag :|[2,4 BAG "A"A2 :|
|: B |\
"A"c2A EAc | "D"d2f "E7"fed |\
"A"cde aec | "E7"B2f fed ||\
"A"c2A EAc | "D"d2f "E7"fed |
[1 "A"cde aec | "E7"dBe "A"A2 :|\
[2 "A"ece "D"fef | "E7"gfg ba"^d.C."g |]\
[|["Coda" "A"ece "D"fef | "E7"gfg a3 |]
